X:19
T: Ritter und Magd
N: Q0055R
O: Mitteleuropa, Deutschland (BRD) , Hessen, Nassau
R: Ballade, Betrug, Schwangerschaft, Tod, Selbstmord, Herr und Magd
M: 6/8
L: 1/16
K: F
C2 | F2F2A2c2c2c2 | A4AGF2z2
F2 | f4f2f2d2B2 | d6c4
B2 | A2c2c2f2d2d2 | d2c2c2c2z2
A2 | G2d2d2d2c2B2 | B6A4

@@@ Tune index: 895
